src/status/24/kdeconnect-tray.svg

<svg width="24" height="24" viewBox="0 0 24 24" xmlns="http://www.w3.org/2000/svg">
 <path d="m16.414062 13.9375c0.488282-0.15625 0.902344-0.285156 0.914063-0.289062 0.027344-0.007813-0.0625-0.132813-1.183594-1.671876-0.664062-0.917968-1.207031-1.671874-1.203125-1.679687s0.550782-0.714844 1.214844-1.570313c0.839844-1.078124 1.207031-1.5625 1.195312-1.566406-0.019531-0.011718-1.867187-0.4375-1.871093-0.429687-0.136719 0.191406-2.339844 3.128906-2.347657 3.128906-0.003906 0-0.003906-0.074219-0.003906-0.167969 0.003906-0.089844 0.011719-0.8125 0.015625-1.601562l0.003907-1.4375-0.878907 0.082031c-0.484375 0.046875-0.882812 0.085937-0.886719 0.085937-0.007812 0-0.011718 1.648438-0.011718 3.664063v3.664063l0.027344-0.003907c0.015624-0.003906 0.410156-0.0625 0.878906-0.132812l0.847656-0.128907v-1.5625c0-1.546874 0-1.566406 0.023438-1.539062 0.011718 0.015625 0.546874 0.792969 1.1875 1.730469 0.640624 0.9375 1.167968 1.707031 1.175781 1.707031 0.007812 0 0.410156-0.128906 0.902343-0.28125z" fill="rgb(18.039216%, 20.392157%, 25.098041%)"/>
 <path d="m12.710938 17.332031c0.019531-0.015625 0.042968-0.097656 0.273437-1.046875l0.121094-0.488281 0.105469-0.03125c0.207031-0.058594 0.523437-0.195313 0.695312-0.296875l0.058594-0.035156 0.648437 0.425781c0.359375 0.234375 0.660157 0.429687 0.671875 0.4375 0.015625 0.007813 0.039063 0.007813 0.050782 0.003906 0.015624 0 0.195312-0.171875 0.398437-0.375 0.296875-0.296875 0.371094-0.378906 0.371094-0.402343 0-0.019532-0.058594-0.125-0.148438-0.273438-0.082031-0.132812-0.1875-0.308594-0.234375-0.390625-0.050781-0.078125-0.09375-0.148437-0.097656-0.15625-0.003906-0.003906-0.046875 0.003906-0.097656 0.015625-0.074219 0.023438-0.089844 0.023438-0.105469 0.011719-0.011719-0.007813-0.175781-0.242188-0.363281-0.519531l-0.347656-0.507813-0.046876 0.085937c-0.355468 0.660157-1.027343 1.175782-1.777343 1.367188-1.058594 0.273438-2.191407-0.097656-2.886719-0.945312-0.539062-0.65625-0.757812-1.511719-0.59375-2.34375 0.164062-0.847657 0.714844-1.582032 1.484375-1.976563l0.132813-0.066406v-0.722657l-0.078126 0.027344c-0.121093 0.046875-0.214843 0.085938-0.324218 0.144532-0.058594 0.027343-0.109375 0.046874-0.121094 0.042968-0.007812-0.003906-0.3125-0.203125-0.679688-0.441406-0.53125-0.347656-0.667968-0.433594-0.699218-0.433594-0.035156 0-0.074219 0.035156-0.410156 0.371094-0.335938 0.335938-0.367188 0.371094-0.367188 0.40625 0 0.03125 0.09375 0.195312 0.410156 0.714844 0.226563 0.371094 0.410156 0.679687 0.410156 0.683594 0 0.003906-0.03125 0.066406-0.066406 0.132812-0.082031 0.148438-0.164062 0.335938-0.226562 0.515625-0.023438 0.070313-0.046875 0.132813-0.054688 0.136719-0.003906 0.003906-0.347656 0.078125-0.761718 0.164062-0.496094 0.101563-0.757813 0.164063-0.777344 0.175782-0.023438 0.019531-0.023438 0.027343-0.027344 0.546874l-0.003906 0.523438 0.027344 0.03125c0.023437 0.027344 0.105468 0.046875 0.757812 0.207031 0.402344 0.097657 0.734375 0.179688 0.738281 0.183594 0.003907 0.003906 0.023438 0.066406 0.042969 0.132813 0.054688 0.191406 0.136719 0.398437 0.230469 0.59375 0.046875 0.097656 0.085937 0.1875 0.082031 0.195312s-0.191406 0.296875-0.417969 0.640625c-0.222656 0.34375-0.414062 0.640625-0.421875 0.660156-0.011718 0.023438-0.007812 0.039063 0.003906 0.0625 0.007813 0.015625 0.175782 0.1875 0.371094 0.386719 0.320313 0.320312 0.363282 0.355469 0.398438 0.355469 0.027344 0 0.191406-0.09375 0.691406-0.398438 0.359375-0.21875 0.664062-0.398437 0.671875-0.402343 0.007813-0.003907 0.09375 0.03125 0.1875 0.082031 0.179687 0.085937 0.375 0.167969 0.558594 0.226562l0.105469 0.03125 0.148437 0.710938c0.082031 0.394531 0.152344 0.730469 0.15625 0.753906 0.003906 0.019531 0.015625 0.046875 0.027344 0.0625 0.023437 0.019531 0.046875 0.019531 0.554687 0.019531 0.410156 0 0.535156-0.003906 0.550782-0.015625z" fill="rgb(18.039216%, 20.392157%, 25.098041%)"/>
 <path d="m6.53125 1.066406c-0.757812 0-1.367188 0.609375-1.367188 1.367188v19.132812c0 0.757813 0.609376 1.367188 1.367188 1.367188h10.9375c0.757812 0 1.367188-0.609375 1.367188-1.367188v-19.132812c0-0.757813-0.609376-1.367188-1.367188-1.367188zm0.753906 1.367188h1.296875l0.683594 0.949218c0.136719 0.1875 0.1875 0.414063 0.417969 0.414063h4.632812c0.230469 0 0.28125-0.226563 0.417969-0.414063l0.683594-0.949218h1.296875c0.417968 0 0.753906 0.332031 0.753906 0.75v17.632812c0 0.417969-0.335938 0.75-0.753906 0.75h-9.429688c-0.417968 0-0.753906-0.332031-0.753906-0.75v-17.632812c0-0.417969 0.335938-0.75 0.753906-0.75z" fill="rgb(18.039216%, 20.392157%, 25.098041%)" fill-rule="evenodd"/>
 <path d="m9.550781 20.203125h4.898438c0.15625 0 0.285156 0.125 0.285156 0.285156 0 0.15625-0.128906 0.285157-0.285156 0.285157h-4.898438c-0.15625 0-0.285156-0.128907-0.285156-0.285157 0-0.160156 0.128906-0.285156 0.285156-0.285156z" fill="rgb(18.039216%, 20.392157%, 25.098041%)" fill-rule="evenodd"/>
</svg>

<svg xmlns="http://www.w3.org/2000/svg" xmlns:xlink="http://www.w3.org/1999/xlink" width="24" height="24" viewBox="0 0 24 24">
<path fill-rule="nonzero" fill="rgb(18.039216%, 20.392157%, 25.098041%)" fill-opacity="1" d="M 16.414062 13.9375 C 16.902344 13.78125 17.316406 13.652344 17.328125 13.648438 C 17.355469 13.640625 17.265625 13.515625 16.144531 11.976562 C 15.480469 11.058594 14.9375 10.304688 14.941406 10.296875 C 14.945312 10.289062 15.492188 9.582031 16.15625 8.726562 C 16.996094 7.648438 17.363281 7.164062 17.351562 7.160156 C 17.332031 7.148438 15.484375 6.722656 15.480469 6.730469 C 15.34375 6.921875 13.140625 9.859375 13.132812 9.859375 C 13.128906 9.859375 13.128906 9.785156 13.128906 9.691406 C 13.132812 9.601562 13.140625 8.878906 13.144531 8.089844 L 13.148438 6.652344 L 12.269531 6.734375 C 11.785156 6.78125 11.386719 6.820312 11.382812 6.820312 C 11.375 6.820312 11.371094 8.46875 11.371094 10.484375 L 11.371094 14.148438 L 11.398438 14.144531 C 11.414062 14.140625 11.808594 14.082031 12.277344 14.011719 L 13.125 13.882812 L 13.125 12.320312 C 13.125 10.773438 13.125 10.753906 13.148438 10.78125 C 13.160156 10.796875 13.695312 11.574219 14.335938 12.511719 C 14.976562 13.449219 15.503906 14.21875 15.511719 14.21875 C 15.519531 14.21875 15.921875 14.089844 16.414062 13.9375 Z M 16.414062 13.9375 "/>
<path fill-rule="nonzero" fill="rgb(18.039216%, 20.392157%, 25.098041%)" fill-opacity="1" d="M 12.710938 17.332031 C 12.730469 17.316406 12.753906 17.234375 12.984375 16.285156 L 13.105469 15.796875 L 13.210938 15.765625 C 13.417969 15.707031 13.734375 15.570312 13.90625 15.46875 L 13.964844 15.433594 L 14.613281 15.859375 C 14.972656 16.09375 15.273438 16.289062 15.285156 16.296875 C 15.300781 16.304688 15.324219 16.304688 15.335938 16.300781 C 15.351562 16.300781 15.53125 16.128906 15.734375 15.925781 C 16.03125 15.628906 16.105469 15.546875 16.105469 15.523438 C 16.105469 15.503906 16.046875 15.398438 15.957031 15.25 C 15.875 15.117188 15.769531 14.941406 15.722656 14.859375 C 15.671875 14.78125 15.628906 14.710938 15.625 14.703125 C 15.621094 14.699219 15.578125 14.707031 15.527344 14.71875 C 15.453125 14.742188 15.4375 14.742188 15.421875 14.730469 C 15.410156 14.722656 15.246094 14.488281 15.058594 14.210938 L 14.710938 13.703125 L 14.664062 13.789062 C 14.308594 14.449219 13.636719 14.964844 12.886719 15.15625 C 11.828125 15.429688 10.695312 15.058594 10 14.210938 C 9.460938 13.554688 9.242188 12.699219 9.40625 11.867188 C 9.570312 11.019531 10.121094 10.285156 10.890625 9.890625 L 11.023438 9.824219 L 11.023438 9.101562 L 10.945312 9.128906 C 10.824219 9.175781 10.730469 9.214844 10.621094 9.273438 C 10.5625 9.300781 10.511719 9.320312 10.5 9.316406 C 10.492188 9.3125 10.1875 9.113281 9.820312 8.875 C 9.289062 8.527344 9.152344 8.441406 9.121094 8.441406 C 9.085938 8.441406 9.046875 8.476562 8.710938 8.8125 C 8.375 9.148438 8.34375 9.183594 8.34375 9.21875 C 8.34375 9.25 8.4375 9.414062 8.753906 9.933594 C 8.980469 10.304688 9.164062 10.613281 9.164062 10.617188 C 9.164062 10.621094 9.132812 10.683594 9.097656 10.75 C 9.015625 10.898438 8.933594 11.085938 8.871094 11.265625 C 8.847656 11.335938 8.824219 11.398438 8.816406 11.402344 C 8.8125 11.40625 8.46875 11.480469 8.054688 11.566406 C 7.558594 11.667969 7.296875 11.730469 7.277344 11.742188 C 7.253906 11.761719 7.253906 11.769531 7.25 12.289062 L 7.246094 12.8125 L 7.273438 12.84375 C 7.296875 12.871094 7.378906 12.890625 8.03125 13.050781 C 8.433594 13.148438 8.765625 13.230469 8.769531 13.234375 C 8.773438 13.238281 8.792969 13.300781 8.8125 13.367188 C 8.867188 13.558594 8.949219 13.765625 9.042969 13.960938 C 9.089844 14.058594 9.128906 14.148438 9.125 14.15625 C 9.121094 14.164062 8.933594 14.453125 8.707031 14.796875 C 8.484375 15.140625 8.292969 15.4375 8.285156 15.457031 C 8.273438 15.480469 8.277344 15.496094 8.289062 15.519531 C 8.296875 15.535156 8.464844 15.707031 8.660156 15.90625 C 8.980469 16.226562 9.023438 16.261719 9.058594 16.261719 C 9.085938 16.261719 9.25 16.167969 9.75 15.863281 C 10.109375 15.644531 10.414062 15.464844 10.421875 15.460938 C 10.429688 15.457031 10.515625 15.492188 10.609375 15.542969 C 10.789062 15.628906 10.984375 15.710938 11.167969 15.769531 L 11.273438 15.800781 L 11.421875 16.511719 C 11.503906 16.90625 11.574219 17.242188 11.578125 17.265625 C 11.582031 17.285156 11.59375 17.3125 11.605469 17.328125 C 11.628906 17.347656 11.652344 17.347656 12.160156 17.347656 C 12.570312 17.347656 12.695312 17.34375 12.710938 17.332031 Z M 12.710938 17.332031 "/>
<path fill-rule="evenodd" fill="rgb(18.039216%, 20.392157%, 25.098041%)" fill-opacity="1" d="M 6.53125 1.066406 C 5.773438 1.066406 5.164062 1.675781 5.164062 2.433594 L 5.164062 21.566406 C 5.164062 22.324219 5.773438 22.933594 6.53125 22.933594 L 17.46875 22.933594 C 18.226562 22.933594 18.835938 22.324219 18.835938 21.566406 L 18.835938 2.433594 C 18.835938 1.675781 18.226562 1.066406 17.46875 1.066406 Z M 7.285156 2.433594 L 8.582031 2.433594 L 9.265625 3.382812 C 9.402344 3.570312 9.453125 3.796875 9.683594 3.796875 L 14.316406 3.796875 C 14.546875 3.796875 14.597656 3.570312 14.734375 3.382812 L 15.417969 2.433594 L 16.714844 2.433594 C 17.132812 2.433594 17.46875 2.765625 17.46875 3.183594 L 17.46875 20.816406 C 17.46875 21.234375 17.132812 21.566406 16.714844 21.566406 L 7.285156 21.566406 C 6.867188 21.566406 6.53125 21.234375 6.53125 20.816406 L 6.53125 3.183594 C 6.53125 2.765625 6.867188 2.433594 7.285156 2.433594 Z M 7.285156 2.433594 "/>
<path fill-rule="evenodd" fill="rgb(18.039216%, 20.392157%, 25.098041%)" fill-opacity="1" d="M 9.550781 20.203125 L 14.449219 20.203125 C 14.605469 20.203125 14.734375 20.328125 14.734375 20.488281 C 14.734375 20.644531 14.605469 20.773438 14.449219 20.773438 L 9.550781 20.773438 C 9.394531 20.773438 9.265625 20.644531 9.265625 20.488281 C 9.265625 20.328125 9.394531 20.203125 9.550781 20.203125 Z M 9.550781 20.203125 "/>
</svg>
